packages/core/src/svgs/tokens/mono/LSK.svg

<svg width="24" height="24" viewBox="0 0 24 24" fill="none" xmlns="http://www.w3.org/2000/svg">
<path d="M10.2999 4.91007L11.9359 2L20.1344 16.4013L15.4073 21.9997H11.6259L16.4802 16.0337C14.4095 12.3318 12.3267 8.63692 10.2999 4.91007Z" fill="white"/>
<path d="M9.90482 18.8682H12.7347L10.1585 22.0001H8.57822L3.86548 16.4304L9.66498 6.05664L11.4144 9.03938L7.49148 16.0484L9.90482 18.8682Z" fill="white"/>
</svg>

<svg xmlns="http://www.w3.org/2000/svg" width="24" height="24" fill="none" viewBox="0 0 24 24">
    <path fill="#fff" d="M10.3 4.91 11.936 2l8.198 14.401L15.407 22h-3.781l4.854-5.966c-2.07-3.702-4.153-7.397-6.18-11.124"/>
    <path fill="#fff" d="M9.905 18.868h2.83L10.159 22h-1.58l-4.714-5.57 5.8-10.373 1.75 2.982-3.924 7.01z"/>
</svg>
